X:1
T:Goralu Czy Ci Nie Zal
M:3/4
L:1/4
K:G
|:"G"dgg | bag |"C"e3-|e z "D7"d | f2f | fed |"G"gg2 |1 g z "D7"d :|2 "G"gzb ||
|:"G"d2B | Bcd |"C"e3-|e z "D7"d | g2e | dcA |"G"g3  |1 g z     b :|2    g3  ||
